images/logos/osp-w.svg

<svg fill="none" height="239" viewBox="0 0 249 239" width="249" xmlns="http://www.w3.org/2000/svg"><g fill="#fff"><path d="m64.9222 41c-3.2395 0-5.9222-2.6321-5.9222-5.9222v-29.15558c0-3.2395 2.6321-5.92222 5.9222-5.92222h29.1556c3.2395 0 5.9222 2.6321 5.9222 5.92222v35.07778z"/><path d="m110.922 87c-3.239 0-5.922-2.6321-5.922-5.9222v-29.1556c0-3.2395 2.632-5.9222 5.922-5.9222h29.156c3.239 0 5.922 2.6321 5.922 5.9222v35.0778z"/><path d="m110.922 41c-3.239 0-5.922-2.6321-5.922-5.9222v-29.15558c0-3.2395 2.632-5.92222 5.922-5.92222h29.156c3.239 0 5.922 2.6321 5.922 5.92222v35.07778z"/><path d="m156.922 87c-3.239 0-5.922-2.6321-5.922-5.9222v-29.1556c0-3.2395 2.632-5.9222 5.922-5.9222h29.156c3.239 0 5.922 2.6321 5.922 5.9222v35.0778z"/><path d="m64.9222 134c-3.2395 0-5.9222-2.632-5.9222-5.922v-29.1558c0-3.2395 2.6321-5.9222 5.9222-5.9222h29.1556c3.2395 0 5.9222 2.6321 5.9222 5.9222v35.0778z"/><path d="m156.922 41c-3.239 0-5.922-2.6321-5.922-5.9222v-29.15558c0-3.2395 2.632-5.92222 5.922-5.92222h29.156c3.239 0 5.922 2.6321 5.922 5.92222v35.07778z"/><path d="m64.9222 87c-3.2395 0-5.9222-2.6321-5.9222-5.9222v-29.1556c0-3.2395 2.6321-5.9222 5.9222-5.9222h29.1556c3.2395 0 5.9222 2.6321 5.9222 5.9222v35.0778z"/><path d="m110.922 134c-3.239 0-5.922-2.632-5.922-5.922v-29.1558c0-3.2395 2.632-5.9222 5.922-5.9222h29.156c3.239 0 5.922 2.6321 5.922 5.9222v35.0778z"/><path d="m4.61555 234.284c.62514.611 1.40656 1.08 2.24008 1.456.88561.375 1.77122.563 2.70893.563 1.19814 0 2.08384-.235 2.76104-.704.6772-.47.9898-1.127.9898-1.925 0-.422-.0521-.751-.2084-1.033-.1563-.281-.3647-.516-.6251-.751-.2605-.187-.5731-.375-.9377-.563-.3647-.141-.7294-.328-1.1461-.516l-2.55267-.986c-.41676-.141-.83352-.376-1.30237-.61-.41676-.235-.83352-.517-1.14609-.845-.36466-.329-.62514-.704-.83352-1.174-.20838-.469-.31257-.986-.31257-1.549 0-.61.15629-1.173.41676-1.69.26048-.516.67723-.985 1.14609-1.361.52095-.376 1.09399-.704 1.77122-.892.67724-.235 1.40657-.329 2.24009-.329 1.09396 0 2.08376.188 2.96936.564.8857.375 1.6671.845 2.2922 1.455l-1.2503 1.314c-.5209-.469-1.146-.845-1.8233-1.126-.6772-.282-1.4065-.423-2.24006-.423-.9898 0-1.82332.188-2.39636.611-.62514.422-.93771.985-.93771 1.736 0 .376.10419.704.26047.986.15629.282.41676.516.67724.704.31256.188.62513.376.9377.564.36467.14.67724.281 1.0419.422l2.55262.986c.521.188.9898.422 1.4587.657.4688.235.8335.563 1.1461.892.3125.328.573.751.7814 1.173.2084.47.2605.986.2605 1.549 0 .658-.1563 1.221-.4168 1.784-.2605.564-.6772 1.033-1.1982 1.455-.5209.423-1.1461.752-1.9275.986-.7293.235-1.6149.376-2.55263.376-1.25028 0-2.39636-.235-3.49036-.657-1.09399-.423-1.9796-.986-2.76103-1.737z"/><path d="m21.8594 221.704h2.6568l3.4383 8.637 1.3023 3.286h.1042l1.2503-3.286 3.4383-8.637h2.6568v16.101h-2.1359v-8.872c0-.704.0521-1.502.1042-2.394.0521-.845.1563-1.643.2084-2.394h-.1042l-1.4587 3.568-3.4382 8.402h-1.3024l-3.4382-8.402-1.4066-3.568h-.1042c.0521.704.1042 1.502.2084 2.394.0521.845.1042 1.643.1042 2.394v8.872h-2.0838z"/><path d="m52.5427 232.876h-6.5119l-1.7191 4.929h-2.2922l6.043-16.101h2.5527l6.043 16.101h-2.4485zm-.573-1.643-.8336-2.441c-.3125-.892-.6251-1.783-.9377-2.675-.3125-.892-.573-1.784-.8856-2.723h-.1042c-.2604.939-.573 1.831-.8335 2.723-.3126.892-.6251 1.783-.9377 2.675l-.8335 2.441z"/><path d="m71.7138 237.805-4.3239-6.806h-3.2299v6.806h-2.2401v-16.101h5.5742c.8856 0 1.7712.094 2.5005.235.7815.141 1.4587.422 1.9796.751.5731.375.9898.845 1.3024 1.408s.4689 1.268.4689 2.113c0 1.267-.3647 2.253-1.094 3.004-.7294.751-1.7192 1.267-2.9173 1.549l4.5322 7.041zm-7.5017-8.496h3.0215c1.4066 0 2.4485-.235 3.2299-.751.7293-.517 1.094-1.315 1.094-2.347 0-1.08-.3647-1.831-1.094-2.254-.7293-.422-1.8233-.657-3.2299-.657h-3.0215z"/><path d="m83.6444 223.394h-5.4178v-1.737h13.0758v1.737h-5.4179v14.411h-2.2922z"/><path d="m105.471 221.704h5.47c.989 0 1.875.094 2.709.235.833.141 1.51.422 2.083.798.573.375 1.042.845 1.355 1.455.312.61.469 1.361.469 2.253 0 .845-.157 1.596-.469 2.206-.313.611-.782 1.127-1.355 1.55-.573.422-1.25.704-2.083.938-.834.188-1.72.329-2.709.329h-3.23v6.384h-2.24zm5.209 8.027c1.563 0 2.709-.282 3.491-.798.729-.516 1.146-1.361 1.146-2.535 0-1.173-.365-1.971-1.146-2.441-.782-.469-1.928-.657-3.439-.657h-2.917v6.431z"/><path d="m123.913 221.704h2.241v14.364h7.814v1.737h-10.107v-16.101z"/><path d="m148.136 232.876h-6.511l-1.72 4.929h-2.292l6.043-16.101h2.553l6.043 16.101h-2.449zm-.573-1.643-.833-2.441c-.313-.892-.625-1.783-.938-2.675-.312-.892-.573-1.784-.885-2.723h-.105c-.26.939-.573 1.831-.833 2.723-.313.892-.625 1.783-.938 2.675l-.833 2.441z"/><path d="m160.119 223.394h-5.418v-1.737h13.076v1.737h-5.366v14.411h-2.292z"/><path d="m173.768 221.704h10.314v1.737h-8.022v5.445h6.824v1.737h-6.824v7.229h-2.24z"/><path d="m196.272 238.087c-1.146 0-2.136-.188-3.074-.611-.937-.375-1.719-.938-2.396-1.689-.677-.705-1.198-1.596-1.563-2.629s-.573-2.206-.573-3.521c0-1.314.208-2.441.573-3.473.365-1.033.886-1.878 1.563-2.582s1.459-1.268 2.396-1.643c.938-.376 1.98-.564 3.074-.564 1.146 0 2.136.188 3.073.564.938.375 1.72.939 2.449 1.643.677.704 1.198 1.596 1.563 2.582.364 1.032.573 2.159.573 3.426 0 1.315-.209 2.441-.573 3.521-.365 1.033-.886 1.925-1.563 2.629-.677.751-1.511 1.267-2.449 1.69-.937.469-1.979.657-3.073.657zm0-1.784c.781 0 1.511-.141 2.188-.469.625-.329 1.198-.752 1.667-1.362s.833-1.267 1.094-2.065c.26-.798.365-1.737.365-2.723s-.105-1.878-.365-2.722c-.261-.798-.625-1.503-1.094-2.019-.469-.563-1.042-.986-1.667-1.267-.625-.282-1.355-.47-2.188-.47-.782 0-1.511.141-2.188.47-.625.281-1.198.751-1.667 1.267-.469.563-.834 1.221-1.094 2.019-.261.798-.365 1.689-.365 2.722s.104 1.925.365 2.723c.26.798.625 1.502 1.094 2.065.469.564 1.042 1.033 1.667 1.362.625.328 1.354.469 2.188.469z"/><path d="m220.288 237.805-4.324-6.806h-3.23v6.806h-2.24v-16.101h5.574c.886 0 1.772.094 2.501.235.781.141 1.459.422 1.979.751.574.375.99.845 1.303 1.408.312.563.469 1.268.469 2.113 0 1.267-.365 2.253-1.094 3.004-.73.751-1.719 1.267-2.918 1.549l4.533 7.041zm-7.554-8.496h3.022c1.406 0 2.448-.235 3.23-.751.729-.517 1.094-1.315 1.094-2.347 0-1.08-.365-1.831-1.094-2.254-.73-.422-1.824-.657-3.23-.657h-3.022z"/><path d="m229.041 221.704h2.657l3.438 8.637 1.302 3.286h.105l1.25-3.286 3.438-8.637h2.657v16.101h-2.136v-8.872c0-.704.052-1.502.104-2.394.052-.845.157-1.643.209-2.394h-.104l-1.459 3.568-3.438 8.402h-1.303l-3.438-8.402-1.407-3.568h-.104c.052.704.104 1.502.209 2.394.052.845.104 1.643.104 2.394v8.872h-2.084z"/><path d="m226 162c-12.886 0-23 9.993-23 23.026 0 13.032 10.114 22.974 23 22.974s23-9.993 23-22.974c0-13.084-10.114-23.026-23-23.026zm0 7.933c8.214 0 14.734 6.851 14.734 15.041 0 8.139-6.52 15.042-14.734 15.042-8.163 0-14.734-6.954-14.734-15.042 0-8.19 6.52-15.041 14.734-15.041z"/><path d="m118.205 200.016c-8.196 0-14.702-6.903-14.702-15.042 0-8.242 6.506-15.041 14.702-15.041s14.701 6.851 14.701 15.041c0 8.139-6.556 15.042-14.701 15.042zm14.548-36.728v4.945h-.308c-3.329-3.76-8.81-6.233-14.496-6.233-12.858 0-22.949 9.993-22.949 23.026 0 13.032 10.091 22.974 22.949 22.974 5.686 0 11.116-2.524 14.496-6.233h.308v4.842h8.247v-43.321z"/><path d="m172.179 200.239c-8.205 0-14.717-6.752-14.717-14.715 0-8.063 6.512-14.715 14.717-14.715 8.206 0 14.718 6.703 14.718 14.715 0 7.963-6.564 14.715-14.718 14.715zm14.513-56.239v25.096h-.256c-3.333-3.679-8.821-6.098-14.462-6.098-12.871 0-22.974 9.777-22.974 22.526 0 12.75 10.103 22.476 22.974 22.476 5.693 0 11.129-2.469 14.462-6.098h.308v4.737h8.256v-62.639z"/><path d="m88.8612 195.225c-2.7592 2.936-6.6857 4.791-11.0898 4.791-8.4898 0-15.2285-6.954-15.2285-15.042 0-8.242 6.7387-15.041 15.2285-15.041 4.4041 0 8.3306 1.854 11.0898 4.79l4.1388-7.572c-4.0857-3.245-9.3918-5.151-15.2286-5.151-13.3183 0-23.7714 9.993-23.7714 23.026 0 13.032 10.4531 22.974 23.7714 22.974 5.8368 0 11.1429-1.906 15.2286-5.151z"/><path d="m23 162c-12.8862 0-23 9.993-23 23.026 0 13.032 10.1138 22.974 23 22.974s23-9.993 23-22.974c0-13.084-10.1138-23.026-23-23.026zm0 7.933c8.2143 0 14.7344 6.851 14.7344 15.041 0 8.139-6.5201 15.042-14.7344 15.042-8.1629 0-14.73438-6.954-14.73438-15.042 0-8.19 6.57148-15.041 14.73438-15.041z"/></g></svg>

<svg width="249" height="239" viewBox="0 0 249 239" fill="none" xmlns="http://www.w3.org/2000/svg">
<path d="M64.9222 41C61.6827 41 59 38.3679 59 35.0778V5.92222C59 2.68272 61.6321 0 64.9222 0H94.0778C97.3173 0 100 2.6321 100 5.92222V41H64.9222Z" fill="white"/>
<path d="M110.922 87C107.683 87 105 84.3679 105 81.0778V51.9222C105 48.6827 107.632 46 110.922 46H140.078C143.317 46 146 48.6321 146 51.9222V87H110.922Z" fill="white"/>
<path d="M110.922 41C107.683 41 105 38.3679 105 35.0778V5.92222C105 2.68272 107.632 0 110.922 0H140.078C143.317 0 146 2.6321 146 5.92222V41H110.922Z" fill="white"/>
<path d="M156.922 87C153.683 87 151 84.3679 151 81.0778V51.9222C151 48.6827 153.632 46 156.922 46H186.078C189.317 46 192 48.6321 192 51.9222V87H156.922Z" fill="white"/>
<path d="M64.9222 134C61.6827 134 59 131.368 59 128.078V98.9222C59 95.6827 61.6321 93 64.9222 93H94.0778C97.3173 93 100 95.6321 100 98.9222V134H64.9222Z" fill="white"/>
<path d="M156.922 41C153.683 41 151 38.3679 151 35.0778V5.92222C151 2.68272 153.632 0 156.922 0H186.078C189.317 0 192 2.6321 192 5.92222V41H156.922Z" fill="white"/>
<path d="M64.9222 87C61.6827 87 59 84.3679 59 81.0778V51.9222C59 48.6827 61.6321 46 64.9222 46H94.0778C97.3173 46 100 48.6321 100 51.9222V87H64.9222Z" fill="white"/>
<path d="M110.922 134C107.683 134 105 131.368 105 128.078V98.9222C105 95.6827 107.632 93 110.922 93H140.078C143.317 93 146 95.6321 146 98.9222V134H110.922Z" fill="white"/>
<path d="M4.61555 234.284C5.24069 234.895 6.02211 235.364 6.85563 235.74C7.74124 236.115 8.62685 236.303 9.56456 236.303C10.7627 236.303 11.6484 236.068 12.3256 235.599C13.0028 235.129 13.3154 234.472 13.3154 233.674C13.3154 233.252 13.2633 232.923 13.107 232.641C12.9507 232.36 12.7423 232.125 12.4819 231.89C12.2214 231.703 11.9088 231.515 11.5442 231.327C11.1795 231.186 10.8148 230.999 10.3981 230.811L7.84543 229.825C7.42867 229.684 7.01191 229.449 6.54306 229.215C6.1263 228.98 5.70954 228.698 5.39697 228.37C5.03231 228.041 4.77183 227.666 4.56345 227.196C4.35507 226.727 4.25088 226.21 4.25088 225.647C4.25088 225.037 4.40717 224.474 4.66764 223.957C4.92812 223.441 5.34487 222.972 5.81373 222.596C6.33468 222.22 6.90772 221.892 7.58495 221.704C8.26219 221.469 8.99152 221.375 9.82504 221.375C10.919 221.375 11.9088 221.563 12.7944 221.939C13.6801 222.314 14.4615 222.784 15.0866 223.394L13.8363 224.708C13.3154 224.239 12.6903 223.863 12.013 223.582C11.3358 223.3 10.6065 223.159 9.77294 223.159C8.78314 223.159 7.94962 223.347 7.37658 223.77C6.75144 224.192 6.43887 224.755 6.43887 225.506C6.43887 225.882 6.54306 226.21 6.69934 226.492C6.85563 226.774 7.1161 227.008 7.37658 227.196C7.68914 227.384 8.00171 227.572 8.31428 227.76C8.67895 227.9 8.99152 228.041 9.35618 228.182L11.9088 229.168C12.4298 229.356 12.8986 229.59 13.3675 229.825C13.8363 230.06 14.201 230.388 14.5136 230.717C14.8261 231.045 15.0866 231.468 15.295 231.89C15.5034 232.36 15.5555 232.876 15.5555 233.439C15.5555 234.097 15.3992 234.66 15.1387 235.223C14.8782 235.787 14.4615 236.256 13.9405 236.678C13.4196 237.101 12.7944 237.43 12.013 237.664C11.2837 237.899 10.3981 238.04 9.46037 238.04C8.21009 238.04 7.06401 237.805 5.97001 237.383C4.87602 236.96 3.99041 236.397 3.20898 235.646L4.61555 234.284Z" fill="white"/>
<path d="M21.8594 221.704H24.5162L27.9545 230.341L29.2568 233.627H29.361L30.6113 230.341L34.0496 221.704H36.7064V237.805H34.5705V228.933C34.5705 228.229 34.6226 227.431 34.6747 226.539C34.7268 225.694 34.831 224.896 34.8831 224.145H34.7789L33.3202 227.713L29.882 236.115H28.5796L25.1414 227.713L23.7348 224.145H23.6306C23.6827 224.849 23.7348 225.647 23.839 226.539C23.8911 227.384 23.9432 228.182 23.9432 228.933V237.805H21.8594V221.704Z" fill="white"/>
<path d="M52.5427 232.876H46.0308L44.3117 237.805H42.0195L48.0625 221.704H50.6152L56.6582 237.805H54.2097L52.5427 232.876ZM51.9697 231.233L51.1361 228.792C50.8236 227.9 50.511 227.009 50.1984 226.117C49.8859 225.225 49.6254 224.333 49.3128 223.394H49.2086C48.9482 224.333 48.6356 225.225 48.3751 226.117C48.0625 227.009 47.75 227.9 47.4374 228.792L46.6039 231.233H51.9697Z" fill="white"/>
<path d="M71.7138 237.805L67.3899 230.999H64.16V237.805H61.9199V221.704H67.4941C68.3797 221.704 69.2653 221.798 69.9946 221.939C70.7761 222.08 71.4533 222.361 71.9742 222.69C72.5473 223.065 72.964 223.535 73.2766 224.098C73.5892 224.661 73.7455 225.366 73.7455 226.211C73.7455 227.478 73.3808 228.464 72.6515 229.215C71.9221 229.966 70.9323 230.482 69.7342 230.764L74.2664 237.805H71.7138ZM64.2121 229.309H67.2336C68.6402 229.309 69.6821 229.074 70.4635 228.558C71.1928 228.041 71.5575 227.243 71.5575 226.211C71.5575 225.131 71.1928 224.38 70.4635 223.957C69.7342 223.535 68.6402 223.3 67.2336 223.3H64.2121V229.309Z" fill="white"/>
<path d="M83.6444 223.394H78.2266V221.657H91.3024V223.394H85.8845V237.805H83.5923L83.6444 223.394Z" fill="white"/>
<path d="M105.471 221.704H110.941C111.93 221.704 112.816 221.798 113.65 221.939C114.483 222.08 115.16 222.361 115.733 222.737C116.306 223.112 116.775 223.582 117.088 224.192C117.4 224.802 117.557 225.553 117.557 226.445C117.557 227.29 117.4 228.041 117.088 228.651C116.775 229.262 116.306 229.778 115.733 230.201C115.16 230.623 114.483 230.905 113.65 231.139C112.816 231.327 111.93 231.468 110.941 231.468H107.711V237.852H105.471V221.704ZM110.68 229.731C112.243 229.731 113.389 229.449 114.171 228.933C114.9 228.417 115.317 227.572 115.317 226.398C115.317 225.225 114.952 224.427 114.171 223.957C113.389 223.488 112.243 223.3 110.732 223.3H107.815V229.731H110.68Z" fill="white"/>
<path d="M123.913 221.704H126.154V236.068H133.968V237.805H123.861V221.704H123.913Z" fill="white"/>
<path d="M148.136 232.876H141.625L139.905 237.805H137.613L143.656 221.704H146.209L152.252 237.805H149.803L148.136 232.876ZM147.563 231.233L146.73 228.792C146.417 227.9 146.105 227.009 145.792 226.117C145.48 225.225 145.219 224.333 144.907 223.394H144.802C144.542 224.333 144.229 225.225 143.969 226.117C143.656 227.009 143.344 227.9 143.031 228.792L142.198 231.233H147.563Z" fill="white"/>
<path d="M160.119 223.394H154.701V221.657H167.777V223.394H162.411V237.805H160.119V223.394Z" fill="white"/>
<path d="M173.768 221.704H184.082V223.441H176.06V228.886H182.884V230.623H176.06V237.852H173.82L173.768 221.704Z" fill="white"/>
<path d="M196.272 238.087C195.126 238.087 194.136 237.899 193.198 237.476C192.261 237.101 191.479 236.538 190.802 235.787C190.125 235.082 189.604 234.191 189.239 233.158C188.874 232.125 188.666 230.952 188.666 229.637C188.666 228.323 188.874 227.196 189.239 226.164C189.604 225.131 190.125 224.286 190.802 223.582C191.479 222.878 192.261 222.314 193.198 221.939C194.136 221.563 195.178 221.375 196.272 221.375C197.418 221.375 198.408 221.563 199.345 221.939C200.283 222.314 201.065 222.878 201.794 223.582C202.471 224.286 202.992 225.178 203.357 226.164C203.721 227.196 203.93 228.323 203.93 229.59C203.93 230.905 203.721 232.031 203.357 233.111C202.992 234.144 202.471 235.036 201.794 235.74C201.117 236.491 200.283 237.007 199.345 237.43C198.408 237.899 197.366 238.087 196.272 238.087ZM196.272 236.303C197.053 236.303 197.783 236.162 198.46 235.834C199.085 235.505 199.658 235.082 200.127 234.472C200.596 233.862 200.96 233.205 201.221 232.407C201.481 231.609 201.586 230.67 201.586 229.684C201.586 228.698 201.481 227.806 201.221 226.962C200.96 226.164 200.596 225.459 200.127 224.943C199.658 224.38 199.085 223.957 198.46 223.676C197.835 223.394 197.105 223.206 196.272 223.206C195.49 223.206 194.761 223.347 194.084 223.676C193.459 223.957 192.886 224.427 192.417 224.943C191.948 225.506 191.583 226.164 191.323 226.962C191.062 227.76 190.958 228.651 190.958 229.684C190.958 230.717 191.062 231.609 191.323 232.407C191.583 233.205 191.948 233.909 192.417 234.472C192.886 235.036 193.459 235.505 194.084 235.834C194.709 236.162 195.438 236.303 196.272 236.303Z" fill="white"/>
<path d="M220.288 237.805L215.964 230.999H212.734V237.805H210.494V221.704H216.068C216.954 221.704 217.84 221.798 218.569 221.939C219.35 222.08 220.028 222.361 220.548 222.69C221.122 223.065 221.538 223.535 221.851 224.098C222.163 224.661 222.32 225.366 222.32 226.211C222.32 227.478 221.955 228.464 221.226 229.215C220.496 229.966 219.507 230.482 218.308 230.764L222.841 237.805H220.288ZM212.734 229.309H215.756C217.162 229.309 218.204 229.074 218.986 228.558C219.715 228.041 220.08 227.243 220.08 226.211C220.08 225.131 219.715 224.38 218.986 223.957C218.256 223.535 217.162 223.3 215.756 223.3H212.734V229.309Z" fill="white"/>
<path d="M229.041 221.704H231.698L235.136 230.341L236.438 233.627H236.543L237.793 230.341L241.231 221.704H243.888V237.805H241.752V228.933C241.752 228.229 241.804 227.431 241.856 226.539C241.908 225.694 242.013 224.896 242.065 224.145H241.961L240.502 227.713L237.064 236.115H235.761L232.323 227.713L230.916 224.145H230.812C230.864 224.849 230.916 225.647 231.021 226.539C231.073 227.384 231.125 228.182 231.125 228.933V237.805H229.041V221.704Z" fill="white"/>
<path d="M226 162C213.114 162 203 171.993 203 185.026C203 198.058 213.114 208 226 208C238.886 208 249 198.007 249 185.026C249 171.942 238.886 162 226 162ZM226 169.933C234.214 169.933 240.734 176.784 240.734 184.974C240.734 193.113 234.214 200.016 226 200.016C217.837 200.016 211.266 193.062 211.266 184.974C211.266 176.784 217.786 169.933 226 169.933Z" fill="white"/>
<path d="M118.205 200.016C110.009 200.016 103.503 193.113 103.503 184.974C103.503 176.732 110.009 169.933 118.205 169.933C126.401 169.933 132.906 176.784 132.906 184.974C132.906 193.113 126.35 200.016 118.205 200.016ZM132.753 163.288V168.233H132.445C129.116 164.473 123.635 162 117.949 162C105.091 162 95 171.993 95 185.026C95 198.058 105.091 208 117.949 208C123.635 208 129.065 205.476 132.445 201.767H132.753V206.609H141V163.288H132.753Z" fill="white"/>
<path d="M172.179 200.239C163.974 200.239 157.462 193.487 157.462 185.524C157.462 177.461 163.974 170.809 172.179 170.809C180.385 170.809 186.897 177.512 186.897 185.524C186.897 193.487 180.333 200.239 172.179 200.239ZM186.692 144V169.096H186.436C183.103 165.417 177.615 162.998 171.974 162.998C159.103 162.998 149 172.775 149 185.524C149 198.274 159.103 208 171.974 208C177.667 208 183.103 205.531 186.436 201.902H186.744V206.639H195V144H186.692Z" fill="white"/>
<path d="M88.8612 195.225C86.102 198.161 82.1755 200.016 77.7714 200.016C69.2816 200.016 62.5429 193.062 62.5429 184.974C62.5429 176.732 69.2816 169.933 77.7714 169.933C82.1755 169.933 86.102 171.787 88.8612 174.723L93 167.151C88.9143 163.906 83.6082 162 77.7714 162C64.4531 162 54 171.993 54 185.026C54 198.058 64.4531 208 77.7714 208C83.6082 208 88.9143 206.094 93 202.849L88.8612 195.225Z" fill="white"/>
<path d="M23 162C10.1138 162 0 171.993 0 185.026C0 198.058 10.1138 208 23 208C35.8862 208 46 198.007 46 185.026C46 171.942 35.8862 162 23 162ZM23 169.933C31.2143 169.933 37.7344 176.784 37.7344 184.974C37.7344 193.113 31.2143 200.016 23 200.016C14.8371 200.016 8.26562 193.062 8.26562 184.974C8.26562 176.784 14.8371 169.933 23 169.933Z" fill="white"/>
</svg>
